source/images/footer-text-logo.svg

<svg width="128" height="25" viewBox="0 0 128 25" fill="none" xmlns="http://www.w3.org/2000/svg">
<g clip-path="url(#clip0_165853_909)">
<path d="M1.6236 22.4574C0.489608 20.7815 -0.0733133 18.7722 0.0213584 16.7383V8.2617C-0.115966 6.20593 0.411707 4.16097 1.52346 2.44043C2.62499 1.11277 4.32737 0.5 6.83086 0.5C9.33436 0.5 10.9366 1.11277 11.938 2.23617C13.0252 3.65904 13.56 5.4407 13.4401 7.24043V9.28298H8.53324V6.93404C8.57287 6.23932 8.47057 5.54378 8.23282 4.89149C8.10574 4.62819 7.90433 4.40969 7.65449 4.26409C7.40465 4.11849 7.11781 4.05245 6.83086 4.07447C6.12989 4.07447 5.62919 4.27872 5.42891 4.78936C5.20237 5.515 5.10073 6.27516 5.12849 7.03617V17.9638C5.0756 18.7022 5.21373 19.4417 5.52905 20.1085C5.72933 20.6192 6.23003 20.8234 6.931 20.8234C7.63198 20.8234 8.03254 20.6192 8.23282 20.1085C8.4605 19.4183 8.56232 18.6914 8.53324 17.9638V15.5128H13.4401V17.5553C13.5419 19.3844 13.0103 21.1918 11.938 22.6617C10.9366 23.8872 9.23422 24.5 6.83086 24.5C4.42751 24.3979 2.62499 23.7851 1.6236 22.4574Z" fill="#111111"/>
<path d="M19.3484 0.806396H25.0563L29.2622 24.0915H24.6558L23.8547 19.1894H20.55L19.7489 24.0915H15.0424L19.3484 0.806396ZM23.4541 16.1255L22.2524 7.03618L21.0507 16.1255H23.4541Z" fill="#111111"/>
<path d="M32.7671 4.68725H29.3623V0.806396H41.2789V4.58512H37.8742V24.0915H32.7671V4.68725Z" fill="#111111"/>
<path d="M50.3916 0.806396H59.2039V3.25746H53.496V10.917H58.1024V13.266H53.496V21.8447H59.2039V24.1936H50.2915V0.806396H50.3916Z" fill="#111111"/>
<path d="M61.8076 0.806396H64.0107L70.5198 16.2277V0.806396H73.1234V24.0915H71.1206L64.5114 8.15959V24.0915H61.8076V0.806396Z" fill="#111111"/>
<path d="M76.1276 0.806396H84.9399V3.25746H79.2319V10.917H83.8383V13.266H79.2319V21.8447H84.9399V24.1936H76.1276V0.806396Z" fill="#111111"/>
<path d="M87.5435 0.806296H92.1499C93.962 0.678639 95.7628 1.1828 97.2571 2.23608C98.3586 3.15523 98.8593 4.78927 98.8593 6.93396C98.8593 9.89566 97.958 11.734 96.0554 12.3467L99.2598 23.9893H96.1555L93.1513 13.0616H90.6478V23.9893H87.4434V0.806296H87.5435ZM91.9496 10.8148C92.982 10.9016 94.011 10.6121 94.8537 9.99778C95.4545 9.48715 95.755 8.46587 95.755 6.93396C95.7827 6.17295 95.6811 5.41279 95.4545 4.68715C95.2291 4.16645 94.8421 3.73582 94.353 3.46162C93.6633 3.14108 92.9061 3.00069 92.1499 3.0531H90.748V10.7127H91.9496V10.8148Z" fill="#111111"/>
<path d="M102.865 22.3554C101.824 20.5697 101.335 18.5053 101.463 16.432V8.67025C101.438 7.19026 101.607 5.71349 101.964 4.27876C102.299 3.20664 102.967 2.27469 103.866 1.62344C104.984 0.948453 106.274 0.628462 107.572 0.704291C109.674 0.704291 111.177 1.21493 112.078 2.33833C113.115 3.82172 113.61 5.62795 113.48 7.44472V8.26174H110.476V7.54684C110.48 6.69152 110.413 5.83736 110.275 4.99365C110.191 4.46049 109.903 3.98313 109.474 3.66599C108.911 3.28921 108.243 3.10993 107.572 3.15535C106.854 3.10843 106.143 3.32587 105.569 3.76812C105.333 3.97055 105.141 4.21989 105.003 4.50086C104.865 4.78184 104.785 5.08853 104.768 5.40216C104.636 6.31517 104.569 7.23673 104.567 8.15961V16.8405C104.494 18.163 104.698 19.4863 105.168 20.7213C105.569 21.5383 106.37 21.8447 107.572 21.8447C108.046 21.905 108.527 21.8208 108.955 21.6028C109.383 21.3847 109.738 21.0425 109.975 20.6192C110.504 19.3277 110.743 17.932 110.676 16.5341V14.9H107.772V12.5511H113.58V24.0915H111.577L111.277 21.4362C111.014 22.3261 110.468 23.101 109.724 23.6376C108.98 24.1742 108.081 24.4419 107.171 24.3979C106.344 24.4475 105.517 24.2869 104.765 23.9304C104.014 23.5739 103.361 23.0327 102.865 22.3554Z" fill="#111111"/>
<path d="M119.989 15.9212L115.082 0.908447H118.086L121.591 12.1425L124.996 0.908447H128L123.093 15.9212V24.0914H120.089V15.9212H119.989Z" fill="#111111"/>
</g>
<defs>
<clipPath id="clip0_165853_909">
<rect width="128" height="24" fill="white" transform="translate(0 0.5)"/>
</clipPath>
</defs>
</svg>

<svg viewBox="0 0 128 25" fill="none" xmlns="http://www.w3.org/2000/svg"><g clip-path="url(#a)" fill="#111"><path d="M1.62 22.46a9.43 9.43 0 0 1-1.6-5.72v-8.48a9.56 9.56 0 0 1 1.5-5.82c1.1-1.33 2.8-1.94 5.31-1.94 2.5 0 4.1.61 5.1 1.74a7.43 7.43 0 0 1 1.51 5v2.04h-4.9v-2.35a5.4 5.4 0 0 0-.3-2.04 1.42 1.42 0 0 0-1.4-.82c-.71 0-1.21.2-1.41.72a6.72 6.72 0 0 0-.3 2.25v10.92a4.3 4.3 0 0 0 .4 2.15c.2.5.7.71 1.4.71s1.1-.2 1.3-.71c.23-.7.33-1.42.3-2.15v-2.45h4.91v2.05a7.92 7.92 0 0 1-1.5 5.1c-1 1.23-2.7 1.84-5.1 1.84-2.41-.1-4.22-.71-5.22-2.04Zm17.73-21.66h5.7l4.21 23.3h-4.6l-.8-4.91h-3.31l-.8 4.9h-4.7l4.3-23.28Zm4.1 15.33-1.2-9.1-1.2 9.1h2.4Zm9.32-11.44h-3.4v-3.88h11.9v3.78h-3.4v19.5h-5.1v-19.4Zm17.63-3.89h8.8v2.46h-5.7v7.66h4.6v2.35h-4.6v8.57h5.7v2.35h-8.9v-23.38h.1Zm11.4 0h2.21l6.51 15.43v-15.42h2.6v23.28h-2l-6.6-15.93v15.93h-2.71v-23.28Zm14.33 0h8.81v2.46h-5.7v7.66h4.6v2.35h-4.6v8.57h5.7v2.35h-8.81v-23.38Zm11.41 0h4.61a7.9 7.9 0 0 1 5.1 1.44c1.1.92 1.6 2.55 1.6 4.7 0 2.96-.9 4.8-2.8 5.4l3.21 11.65h-3.1l-3-10.93h-2.51v10.93h-3.2v-23.18h.1Zm4.41 10.01c1.03.1 2.06-.2 2.9-.81.6-.51.9-1.53.9-3.07a6.72 6.72 0 0 0-.3-2.24 2.58 2.58 0 0 0-1.1-1.23 4.49 4.49 0 0 0-2.2-.4h-1.4v7.65h1.2v.1Zm10.91 11.55a10.49 10.49 0 0 1-1.4-5.93v-7.76a17 17 0 0 1 .5-4.4c.34-1.06 1-2 1.9-2.65 1.12-.67 2.41-1 3.71-.92 2.1 0 3.6.51 4.5 1.64a7.93 7.93 0 0 1 1.41 5.1v.82h-3v-.71c0-.86-.07-1.71-.2-2.56a2.05 2.05 0 0 0-.8-1.32 3.05 3.05 0 0 0-1.9-.51 2.96 2.96 0 0 0-2.01.6 2.3 2.3 0 0 0-.8 1.64c-.13.92-.2 1.84-.2 2.76v8.68a9.45 9.45 0 0 0 .6 3.88c.4.82 1.2 1.12 2.4 1.12a2.38 2.38 0 0 0 2.4-1.22c.53-1.3.77-2.69.7-4.09v-1.63h-2.9v-2.35h5.81v11.54h-2l-.3-2.65a4.08 4.08 0 0 1-4.11 2.96 4.93 4.93 0 0 1-4.3-2.04Zm17.13-6.44-4.9-15.01h3l3.5 11.23 3.4-11.23h3.01l-4.9 15.01v8.17h-3.01v-8.17h-.1Z"/></g><defs><clipPath id="a"><path fill="#fff" transform="translate(0 .5)" d="M0 0h128v24h-128z"/></clipPath></defs></svg>
